public/images/images/4.svg

<svg enable-background="new 0 0 100 100" viewBox="0 0 100 100" xmlns="http://www.w3.org/2000/svg"><path d="m50 6.3h-50v6.3h50z"/><path d="m50 18.7h-50v6.3h50z"/><path d="m50 31.3h-50v6.3h50z"/><path d="m50 43.8h-50v6.2h50z"/><path d="m50 56.2h-50v6.3h50z"/><path d="m50 68.8h-50v6.2h50z"/><path d="m50 81.3h-50v6.3h50z"/><path d="m50 93.7h-50v6.3h50z"/><path d="m100 0h-50v6.3h50z"/><path d="m100 12.5h-50v6.3h50z"/><path d="m100 25h-50v6.3h50z"/><path d="m100 37.5h-50v6.3h50z"/><path d="m100 50h-50v6.3h50z"/><path d="m100 62.5h-50v6.3h50z"/><path d="m100 75h-50v6.3h50z"/><path d="m100 87.5h-50v6.3h50z"/></svg>

<svg version="1.1" id="Ebene_1" xmlns="http://www.w3.org/2000/svg" xmlns:xlink="http://www.w3.org/1999/xlink" x="0px" y="0px" viewBox="0 0 100 100" style="enable-background:new 0 0 100 100;" xml:space="preserve">
<g>
	<path d="M50,6.3H0v6.3h50V6.3z"/>
	<path d="M50,18.7H0V25h50V18.7z"/>
	<path d="M50,31.3H0v6.3h50V31.3z"/>
	<path d="M50,43.8H0V50h50V43.8z"/>
	<path d="M50,56.2H0v6.3h50V56.2z"/>
	<path d="M50,68.8H0V75h50V68.8z"/>
	<path d="M50,81.3H0v6.3h50V81.3z"/>
	<path d="M50,93.7H0v6.3h50V93.7z"/>
	<path d="M100,0H50v6.3h50V0z"/>
	<path d="M100,12.5H50v6.3h50V12.5z"/>
	<path d="M100,25H50v6.3h50V25z"/>
	<path d="M100,37.5H50v6.3h50V37.5z"/>
	<path d="M100,50H50v6.3h50V50z"/>
	<path d="M100,62.5H50v6.3h50V62.5z"/>
	<path d="M100,75H50v6.3h50V75z"/>
	<path d="M100,87.5H50v6.3h50V87.5z"/>
</g>
</svg>
